; generated by PrusaSlicer 2.2.0+win64 on 2022-01-23 at 21:47:26 UTC

; 

; external perimeters extrusion width = 0.45mm
; perimeters extrusion width = 0.45mm
; infill extrusion width = 0.45mm
; solid infill extrusion width = 0.45mm
; top infill extrusion width = 0.40mm
; first layer extrusion width = 0.42mm

M201 X500 Y500 Z100 E5000 ; sets maximum accelerations, mm/sec^2
M203 X500 Y500 Z10 E60 ; sets maximum feedrates, mm/sec
M204 P500 R1000 T500 ; sets acceleration (P, T) and retract acceleration (R), mm/sec^2
M205 X8.00 Y8.00 Z0.40 E5.00 ; sets the jerk limits, mm/sec
M205 S0 T0 ; sets the minimum extruding and travel feed rate, mm/sec
M107
G90 ; use absolute coordinates
M83 ; extruder relative mode
M104 S215 ; set extruder temp
M140 S40 ; set bed temp
M190 S40 ; wait for bed temp
M109 S215 ; wait for extruder temp
G28 ; home all
G1 Z2 F240
G1 X2 Y10 F3000
G1 Z0.28 F240
G92 E0.0
G1 Y190 E15.0 F1500.0 ; intro line
G1 X2.3 F5000
G1 Y10 E30 F1200.0 ; intro line
G92 E0.0
G21 ; set units to millimeters
G90 ; use absolute coordinates
M83 ; use relative distances for extrusion
; Filament gcode
;BEFORE_LAYER_CHANGE
;0.2


G1 E-5.00000 F3600.00000
G1 Z0.200 F9000.000
;AFTER_LAYER_CHANGE
;0.2
G1 X69.571 Y77.729
G1 E5.00000 F2400.00000
G1 F1200.000
G1 X70.148 Y76.956 E0.03024
G1 X70.870 Y76.517 E0.02649
G1 X71.704 Y76.359 E0.02661
G1 X146.620 Y76.359 E2.34893
G1 X147.504 Y76.531 E0.02825
G1 X148.258 Y77.017 E0.02813
G1 X148.778 Y77.749 E0.02813
G1 X148.990 Y78.620 E0.02813
G1 X150.653 Y115.529 E1.15842
G1 X150.652 Y141.333 E0.80905
G1 X150.429 Y142.271 E0.03024
G1 X149.852 Y143.044 E0.03024
G1 X149.130 Y143.483 E0.02649
G1 X148.296 Y143.641 E0.02661
G1 X73.364 Y143.641 E2.34945
G1 X72.869 Y143.588 E0.01562
G1 X72.392 Y143.430 E0.01574
G1 X71.962 Y143.179 E0.01562
G1 X71.592 Y142.840 E0.01574
G1 X71.174 Y142.171 E0.02473
G1 X70.998 Y141.402 E0.02473
G1 X69.352 Y104.479 E1.15886
G1 X69.348 Y78.667 E0.80931
G1 X69.557 Y77.787 E0.02836
G1 E-3.50000 F3600.00000
G1 F7200.000
G1 X70.148 Y76.956 E-0.48445
G1 X70.870 Y76.517 E-0.40133
G1 X71.704 Y76.359 E-0.40311
G1 X71.991 Y76.359 E-0.13612
G1 E-0.07500 F3600.00000
G1 X72.688 Y79.700 F9000.000
G1 E5.00000 F2400.00000
G1 F1200.000
G1 X145.652 Y79.700 E2.28772
G1 X145.654 Y103.462 E0.74505
G1 X72.692 Y103.462 E2.28765
G1 X72.688 Y79.760 E0.74316
G1 X72.311 Y79.323 F9000.000
G1 F1200.000
G1 X146.029 Y79.323 E2.31136
G1 X146.032 Y103.839 E0.76869
G1 X72.315 Y103.839 E2.31132
G1 X72.311 Y79.383 E0.76681
G1 X71.934 Y78.946 F9000.000
G1 F1200.000
G1 X146.406 Y78.946 E2.33501
G1 X146.410 Y104.216 E0.79234
G1 X71.938 Y104.216 E2.33500
G1 X71.934 Y79.006 E0.79046
G1 X72.332 Y78.989 F9000.000
G1 E-3.50000 F3600.00000
G1 F7200.000
G1 X74.934 Y79.003 E-1.42500
G1 E-0.07500 F3600.00000
G1 X145.539 Y80.578 F9000.000
G1 E5.00000 F2400.00000
G1 F1200.000
G1 X144.943 Y79.983 E0.02651
G1 X144.408 Y79.983 E0.01684
G1 X145.369 Y80.944 E0.04277
G1 X145.369 Y81.479 E0.01684
G1 X143.873 Y79.983 E0.06660
G1 X143.337 Y79.983 E0.01684
G1 X145.369 Y82.014 E0.09042
G1 X145.369 Y82.550 E0.01684
G1 X142.802 Y79.983 E0.11424
G1 X142.267 Y79.983 E0.01684
G1 X145.369 Y83.085 E0.13806
G1 X145.369 Y83.620 E0.01684
G1 X141.732 Y79.983 E0.16188
G1 X141.196 Y79.983 E0.01684
G1 X145.369 Y84.155 E0.18570
G1 X145.369 Y84.691 E0.01684
G1 X140.661 Y79.983 E0.20953
G1 X140.126 Y79.983 E0.01684
G1 X145.369 Y85.226 E0.23335
G1 X145.369 Y85.761 E0.01684
G1 X139.591 Y79.983 E0.25717
G1 X139.055 Y79.983 E0.01684
G1 X145.369 Y86.296 E0.28099
G1 X145.369 Y86.832 E0.01684
G1 X138.520 Y79.983 E0.30481
G1 X137.985 Y79.983 E0.01684
G1 X145.369 Y87.367 E0.32863
G1 X145.369 Y87.902 E0.01684
G1 X137.450 Y79.983 E0.35246
G1 X136.914 Y79.983 E0.01684
G1 X145.369 Y88.437 E0.37628
G1 X145.369 Y88.972 E0.01684
G1 X136.379 Y79.983 E0.40010
G1 X135.844 Y79.983 E0.01684
G1 X145.369 Y89.508 E0.42392
G1 X145.369 Y90.043 E0.01684
G1 X135.309 Y79.983 E0.44774
G1 X134.773 Y79.983 E0.01684
G1 X145.369 Y90.578 E0.47156
G1 X145.369 Y91.113 E0.01684
G1 X134.238 Y79.983 E0.49539
G1 X133.703 Y79.983 E0.01684
G1 X145.369 Y91.649 E0.51921
G1 X145.369 Y92.184 E0.01684
G1 X133.168 Y79.983 E0.54303
G1 X132.633 Y79.983 E0.01684
G1 X145.369 Y92.719 E0.56685
G1 X145.369 Y93.254 E0.01684
G1 X132.097 Y79.983 E0.59067
G1 X131.562 Y79.983 E0.01684
G1 X145.369 Y93.790 E0.61449
G1 X145.369 Y94.325 E0.01684
G1 X131.027 Y79.983 E0.63831
G1 X130.492 Y79.983 E0.01684
G1 X145.369 Y94.860 E0.66214
G1 X145.369 Y95.395 E0.01684
G1 X129.956 Y79.983 E0.68596
G1 X129.421 Y79.983 E0.01684
G1 X145.369 Y95.931 E0.70978
G1 X145.369 Y96.466 E0.01684
G1 X128.886 Y79.983 E0.73360
G1 X128.351 Y79.983 E0.01684
G1 X145.369 Y97.001 E0.75742
G1 X145.369 Y97.536 E0.01684
G1 X127.815 Y79.983 E0.78124
G1 X127.280 Y79.983 E0.01684
G1 X145.369 Y98.072 E0.80507
G1 X145.369 Y98.607 E0.01684
G1 X126.745 Y79.983 E0.82889
G1 X126.210 Y79.983 E0.01684
G1 X145.369 Y99.142 E0.85271
G1 X145.369 Y99.677 E0.01684
G1 X125.674 Y79.983 E0.87653
G1 X125.139 Y79.983 E0.01684
G1 X145.369 Y100.213 E0.90035
G1 X145.369 Y100.748 E0.01684
G1 X124.604 Y79.983 E0.92417
G1 X124.069 Y79.983 E0.01684
G1 X145.369 Y101.283 E0.94800
G1 X145.369 Y101.818 E0.01684
G1 X123.533 Y79.983 E0.97182
G1 X122.998 Y79.983 E0.01684
G1 X145.369 Y102.354 E0.99564
G1 X145.370 Y102.889 E0.01686
G1 X122.463 Y79.983 E1.01948
G1 X121.928 Y79.983 E0.01684
G1 X145.124 Y103.179 E1.03238
G1 X144.589 Y103.179 E0.01684
G1 X121.392 Y79.983 E1.03238
G1 X120.857 Y79.983 E0.01684
G1 X144.054 Y103.179 E1.03238
G1 X143.518 Y103.179 E0.01684
G1 X120.322 Y79.983 E1.03238
G1 X119.787 Y79.983 E0.01684
G1 X142.983 Y103.179 E1.03238
G1 X142.448 Y103.179 E0.01684
G1 X119.251 Y79.983 E1.03238
G1 X118.716 Y79.983 E0.01684
G1 X141.913 Y103.179 E1.03238
G1 X141.377 Y103.179 E0.01684
G1 X118.181 Y79.983 E1.03238
G1 X117.646 Y79.983 E0.01684
G1 X140.842 Y103.179 E1.03238
G1 X140.307 Y103.179 E0.01684
G1 X117.110 Y79.983 E1.03238
G1 X116.575 Y79.983 E0.01684
G1 X139.772 Y103.179 E1.03238
G1 X139.236 Y103.179 E0.01684
G1 X116.040 Y79.983 E1.03238
G1 X115.505 Y79.983 E0.01684
G1 X138.701 Y103.179 E1.03238
G1 X138.166 Y103.179 E0.01684
G1 X114.969 Y79.983 E1.03238
G1 X114.434 Y79.983 E0.01684
G1 X137.631 Y103.179 E1.03238
G1 X137.095 Y103.179 E0.01684
G1 X113.899 Y79.983 E1.03238
G1 X113.364 Y79.983 E0.01684
G1 X136.560 Y103.179 E1.03238
G1 X136.025 Y103.179 E0.01684
G1 X112.828 Y79.983 E1.03238
G1 X112.293 Y79.983 E0.01684
G1 X135.490 Y103.179 E1.03238
G1 X134.954 Y103.179 E0.01684
G1 X111.758 Y79.983 E1.03238
G1 X111.223 Y79.983 E0.01684
G1 X134.419 Y103.179 E1.03238
G1 X133.884 Y103.179 E0.01684
G1 X110.687 Y79.983 E1.03238
G1 X110.152 Y79.983 E0.01684
G1 X133.349 Y103.179 E1.03238
G1 X132.814 Y103.179 E0.01684
G1 X109.617 Y79.983 E1.03238
G1 X109.082 Y79.983 E0.01684
G1 X132.278 Y103.179 E1.03238
G1 X131.743 Y103.179 E0.01684
G1 X108.546 Y79.983 E1.03238
G1 X108.011 Y79.983 E0.01684
G1 X131.208 Y103.179 E1.03238
G1 X130.673 Y103.179 E0.01684
G1 X107.476 Y79.983 E1.03238
G1 X106.941 Y79.983 E0.01684
G1 X130.137 Y103.179 E1.03238
G1 X129.602 Y103.179 E0.01684
G1 X106.405 Y79.983 E1.03238
G1 X105.870 Y79.983 E0.01684
G1 X129.067 Y103.179 E1.03238
G1 X128.532 Y103.179 E0.01684
G1 X105.335 Y79.983 E1.03238
G1 X104.800 Y79.983 E0.01684
G1 X127.996 Y103.179 E1.03238
G1 X127.461 Y103.179 E0.01684
G1 X104.264 Y79.983 E1.03238
G1 X103.729 Y79.983 E0.01684
G1 X126.926 Y103.179 E1.03238
G1 X126.391 Y103.179 E0.01684
G1 X103.194 Y79.983 E1.03238
G1 X102.659 Y79.983 E0.01684
G1 X125.855 Y103.179 E1.03238
G1 X125.320 Y103.179 E0.01684
G1 X102.123 Y79.983 E1.03238
G1 X101.588 Y79.983 E0.01684
G1 X124.785 Y103.179 E1.03238
G1 X124.250 Y103.179 E0.01684
G1 X101.053 Y79.983 E1.03238
G1 X100.518 Y79.983 E0.01684
G1 X123.714 Y103.179 E1.03238
G1 X123.179 Y103.179 E0.01684
G1 X99.983 Y79.983 E1.03238
G1 X99.447 Y79.983 E0.01684
G1 X122.644 Y103.179 E1.03238
G1 X122.109 Y103.179 E0.01684
G1 X98.912 Y79.983 E1.03238
G1 X98.377 Y79.983 E0.01684
G1 X121.573 Y103.179 E1.03238
G1 X121.038 Y103.179 E0.01684
G1 X97.842 Y79.983 E1.03238
G1 X97.306 Y79.983 E0.01684
G1 X120.503 Y103.179 E1.03238
G1 X119.968 Y103.179 E0.01684
G1 X96.771 Y79.983 E1.03238
G1 X96.236 Y79.983 E0.01684
G1 X119.432 Y103.179 E1.03238
G1 X118.897 Y103.179 E0.01684
G1 X95.701 Y79.983 E1.03238
G1 X95.165 Y79.983 E0.01684
G1 X118.362 Y103.179 E1.03238
G1 X117.827 Y103.179 E0.01684
G1 X94.630 Y79.983 E1.03238
G1 X94.095 Y79.983 E0.01684
G1 X117.291 Y103.179 E1.03238
G1 X116.756 Y103.179 E0.01684
G1 X93.560 Y79.983 E1.03238
G1 X93.024 Y79.983 E0.01684
G1 X116.221 Y103.179 E1.03238
G1 X115.686 Y103.179 E0.01684
G1 X92.489 Y79.983 E1.03238
G1 X91.954 Y79.983 E0.01684
G1 X115.150 Y103.179 E1.03238
G1 X114.615 Y103.179 E0.01684
G1 X91.419 Y79.983 E1.03238
G1 X90.883 Y79.983 E0.01684
G1 X114.080 Y103.179 E1.03238
G1 X113.545 Y103.179 E0.01684
G1 X90.348 Y79.983 E1.03238
G1 X89.813 Y79.983 E0.01684
G1 X113.009 Y103.179 E1.03238
G1 X112.474 Y103.179 E0.01684
G1 X89.278 Y79.983 E1.03238
G1 X88.742 Y79.983 E0.01684
G1 X111.939 Y103.179 E1.03238
G1 X111.404 Y103.179 E0.01684
G1 X88.207 Y79.983 E1.03238
G1 X87.672 Y79.983 E0.01684
G1 X110.868 Y103.179 E1.03238
G1 X110.333 Y103.179 E0.01684
G1 X87.137 Y79.983 E1.03238
G1 X86.601 Y79.983 E0.01684
G1 X109.798 Y103.179 E1.03238
G1 X109.263 Y103.179 E0.01684
G1 X86.066 Y79.983 E1.03238
G1 X85.531 Y79.983 E0.01684
G1 X108.727 Y103.179 E1.03238
G1 X108.192 Y103.179 E0.01684
G1 X84.996 Y79.983 E1.03238
G1 X84.460 Y79.983 E0.01684
G1 X107.657 Y103.179 E1.03238
G1 X107.122 Y103.179 E0.01684
G1 X83.925 Y79.983 E1.03238
G1 X83.390 Y79.983 E0.01684
G1 X106.586 Y103.179 E1.03238
G1 X106.051 Y103.179 E0.01684
G1 X82.855 Y79.983 E1.03238
G1 X82.319 Y79.983 E0.01684
G1 X105.516 Y103.179 E1.03238
G1 X104.981 Y103.179 E0.01684
G1 X81.784 Y79.983 E1.03238
G1 X81.249 Y79.983 E0.01684
G1 X104.445 Y103.179 E1.03238
G1 X103.910 Y103.179 E0.01684
G1 X80.714 Y79.983 E1.03238
G1 X80.178 Y79.983 E0.01684
G1 X103.375 Y103.179 E1.03238
G1 X102.840 Y103.179 E0.01684
G1 X79.643 Y79.983 E1.03238
G1 X79.108 Y79.983 E0.01684
G1 X102.304 Y103.179 E1.03238
G1 X101.769 Y103.179 E0.01684
G1 X78.573 Y79.983 E1.03238
G1 X78.037 Y79.983 E0.01684
G1 X101.234 Y103.179 E1.03238
G1 X100.699 Y103.179 E0.01684
G1 X77.502 Y79.983 E1.03238
G1 X76.967 Y79.983 E0.01684
G1 X100.164 Y103.179 E1.03238
G1 X99.628 Y103.179 E0.01684
G1 X76.432 Y79.983 E1.03238
G1 X75.896 Y79.983 E0.01684
G1 X99.093 Y103.179 E1.03238
G1 X98.558 Y103.179 E0.01684
G1 X75.361 Y79.983 E1.03238
G1 X74.826 Y79.983 E0.01684
G1 X98.023 Y103.179 E1.03238
G1 X97.487 Y103.179 E0.01684
G1 X74.291 Y79.983 E1.03238
G1 X73.755 Y79.983 E0.01684
G1 X96.952 Y103.179 E1.03238
G1 X96.417 Y103.179 E0.01684
G1 X73.220 Y79.983 E1.03238
G1 X72.971 Y79.983 E0.00784
G1 X72.971 Y80.269 E0.00901
G1 X95.882 Y103.179 E1.01964
G1 X95.346 Y103.179 E0.01684
G1 X72.971 Y80.804 E0.99582
G1 X72.971 Y81.340 E0.01685
G1 X94.811 Y103.179 E0.97199
G1 X94.276 Y103.179 E0.01684
G1 X72.972 Y81.875 E0.94816
G1 X72.972 Y82.410 E0.01685
G1 X93.741 Y103.179 E0.92434
G1 X93.205 Y103.179 E0.01684
G1 X72.972 Y82.946 E0.90051
G1 X72.972 Y83.481 E0.01685
G1 X92.670 Y103.179 E0.87669
G1 X92.135 Y103.179 E0.01684
G1 X72.972 Y84.016 E0.85286
G1 X72.972 Y84.552 E0.01685
G1 X91.600 Y103.179 E0.82904
G1 X91.064 Y103.179 E0.01684
G1 X72.972 Y85.087 E0.80521
G1 X72.972 Y85.622 E0.01685
G1 X90.529 Y103.179 E0.78138
G1 X89.994 Y103.179 E0.01684
G1 X72.972 Y86.158 E0.75756
G1 X72.972 Y86.693 E0.01685
G1 X89.459 Y103.179 E0.73373
G1 X88.923 Y103.179 E0.01684
G1 X72.972 Y87.228 E0.70991
G1 X72.973 Y87.764 E0.01685
G1 X88.388 Y103.179 E0.68608
G1 X87.853 Y103.179 E0.01684
G1 X72.973 Y88.299 E0.66226
G1 X72.973 Y88.834 E0.01685
G1 X87.318 Y103.179 E0.63843
G1 X86.782 Y103.179 E0.01684
G1 X72.973 Y89.370 E0.61460
G1 X72.973 Y89.905 E0.01685
G1 X86.247 Y103.179 E0.59078
G1 X85.712 Y103.179 E0.01684
G1 X72.973 Y90.440 E0.56695
G1 X72.973 Y90.976 E0.01685
G1 X85.177 Y103.179 E0.54313
G1 X84.641 Y103.179 E0.01684
G1 X72.973 Y91.511 E0.51930
G1 X72.973 Y92.046 E0.01685
G1 X84.106 Y103.179 E0.49548
G1 X83.571 Y103.179 E0.01684
G1 X72.973 Y92.582 E0.47165
G1 X72.973 Y93.117 E0.01685
G1 X83.036 Y103.179 E0.44782
G1 X82.500 Y103.179 E0.01684
G1 X72.974 Y93.652 E0.42400
G1 X72.974 Y94.188 E0.01685
G1 X81.965 Y103.179 E0.40017
G1 X81.430 Y103.179 E0.01684
G1 X72.974 Y94.723 E0.37635
G1 X72.974 Y95.258 E0.01685
G1 X80.895 Y103.179 E0.35252
G1 X80.359 Y103.179 E0.01684
G1 X72.974 Y95.794 E0.32870
G1 X72.974 Y96.329 E0.01685
G1 X79.824 Y103.179 E0.30487
G1 X79.289 Y103.179 E0.01684
G1 X72.974 Y96.864 E0.28104
G1 X72.974 Y97.400 E0.01685
G1 X78.754 Y103.179 E0.25722
G1 X78.218 Y103.179 E0.01684
G1 X72.974 Y97.935 E0.23339
G1 X72.974 Y98.471 E0.01685
G1 X77.683 Y103.179 E0.20957
G1 X77.148 Y103.179 E0.01684
G1 X72.975 Y99.006 E0.18574
G1 X72.975 Y99.541 E0.01685
G1 X76.613 Y103.179 E0.16192
G1 X76.077 Y103.179 E0.01684
G1 X72.975 Y100.077 E0.13809
G1 X72.975 Y100.612 E0.01685
G1 X75.542 Y103.179 E0.11426
G1 X75.007 Y103.179 E0.01684
G1 X72.975 Y101.147 E0.09044
G1 X72.975 Y101.683 E0.01685
G1 X74.472 Y103.179 E0.06661
G1 X73.936 Y103.179 E0.01684
G1 X72.975 Y102.218 E0.04279
G1 X72.975 Y102.753 E0.01685
G1 X73.571 Y103.349 E0.02651
G1 E-3.50000 F3600.00000
G1 F7200.000
G1 X72.975 Y102.753 E-0.40019
G1 X72.975 Y102.218 E-0.25429
G1 X73.936 Y103.179 E-0.64582
G1 X74.199 Y103.179 E-0.12470
G1 E-0.07500 F3600.00000
G1 X74.335 Y116.524 F9000.000
G1 E5.00000 F2400.00000
G1 F1200.000
G1 X147.312 Y116.524 E2.28812
G1 X147.312 Y140.300 E0.74548
G1 X74.335 Y140.300 E2.28812
G1 X74.335 Y116.584 E0.74359
G1 X73.958 Y116.147 F9000.000
G1 F1200.000
G1 X147.689 Y116.147 E2.31177
G1 X147.689 Y140.677 E0.76912
G1 X73.958 Y140.677 E2.31177
G1 X73.958 Y116.207 E0.76724
G1 X73.581 Y115.770 F9000.000
G1 F1200.000
G1 X148.066 Y115.770 E2.33541
G1 X148.066 Y141.054 E0.79277
G1 X73.581 Y141.054 E2.33541
G1 X73.581 Y115.830 E0.79089
G1 X73.979 Y115.814 F9000.000
G1 E-3.50000 F3600.00000
G1 F7200.000
G1 X76.581 Y115.828 E-1.42500
G1 E-0.07500 F3600.00000
G1 X147.199 Y117.403 F9000.000
G1 E5.00000 F2400.00000
G1 F1200.000
G1 X146.603 Y116.807 E0.02653
G1 X146.067 Y116.807 E0.01686
G1 X147.029 Y117.769 E0.04281
G1 X147.029 Y118.304 E0.01686
G1 X145.532 Y116.807 E0.06664
G1 X144.997 Y116.807 E0.01686
G1 X147.029 Y118.839 E0.09048
G1 X147.029 Y119.375 E0.01686
G1 X144.461 Y116.807 E0.11432
G1 X143.926 Y116.807 E0.01686
G1 X147.029 Y119.910 E0.13816
G1 X147.029 Y120.446 E0.01686
G1 X143.390 Y116.807 E0.16199
G1 X142.855 Y116.807 E0.01686
G1 X147.029 Y120.981 E0.18583
G1 X147.029 Y121.516 E0.01686
G1 X142.320 Y116.807 E0.20967
G1 X141.784 Y116.807 E0.01686
G1 X147.029 Y122.052 E0.23350
G1 X147.029 Y122.587 E0.01686
G1 X141.249 Y116.807 E0.25734
G1 X140.713 Y116.807 E0.01686
G1 X147.029 Y123.123 E0.28118
G1 X147.029 Y123.658 E0.01686
G1 X140.178 Y116.807 E0.30501
G1 X139.642 Y116.807 E0.01686
G1 X147.029 Y124.194 E0.32885
G1 X147.029 Y124.729 E0.01686
G1 X139.107 Y116.807 E0.35269
G1 X138.572 Y116.807 E0.01686
G1 X147.029 Y125.264 E0.37652
G1 X147.029 Y125.800 E0.01686
G1 X138.036 Y116.807 E0.40036
G1 X137.501 Y116.807 E0.01686
G1 X147.029 Y126.335 E0.42420
G1 X147.029 Y126.871 E0.01686
G1 X136.965 Y116.807 E0.44803
G1 X136.430 Y116.807 E0.01686
G1 X147.029 Y127.406 E0.47187
G1 X147.029 Y127.941 E0.01686
G1 X135.895 Y116.807 E0.49571
G1 X135.359 Y116.807 E0.01686
G1 X147.029 Y128.477 E0.51954
G1 X147.029 Y129.012 E0.01686
G1 X134.824 Y116.807 E0.54338
G1 X134.288 Y116.807 E0.01686
G1 X147.029 Y129.548 E0.56722
G1 X147.029 Y130.083 E0.01686
G1 X133.753 Y116.807 E0.59105
G1 X133.217 Y116.807 E0.01686
G1 X147.029 Y130.619 E0.61489
G1 X147.029 Y131.154 E0.01686
G1 X132.682 Y116.807 E0.63873
G1 X132.147 Y116.807 E0.01686
G1 X147.029 Y131.689 E0.66257
G1 X147.029 Y132.225 E0.01686
G1 X131.611 Y116.807 E0.68640
G1 X131.076 Y116.807 E0.01686
G1 X147.029 Y132.760 E0.71024
G1 X147.029 Y133.296 E0.01686
G1 X130.540 Y116.807 E0.73408
G1 X130.005 Y116.807 E0.01686
G1 X147.029 Y133.831 E0.75791
G1 X147.029 Y134.366 E0.01686
G1 X129.470 Y116.807 E0.78175
