; generated by PrusaSlicer 2.2.0+win64 on 2022-02-01 at 05:54:33 UTC

; 

; external perimeters extrusion width = 0.45mm
; perimeters extrusion width = 0.45mm
; infill extrusion width = 0.45mm
; solid infill extrusion width = 0.45mm
; top infill extrusion width = 0.40mm
; first layer extrusion width = 0.42mm

M201 X500 Y500 Z100 E5000 ; sets maximum accelerations, mm/sec^2
M203 X500 Y500 Z10 E60 ; sets maximum feedrates, mm/sec
M204 P500 R1000 T500 ; sets acceleration (P, T) and retract acceleration (R), mm/sec^2
M205 X8.00 Y8.00 Z0.40 E5.00 ; sets the jerk limits, mm/sec
M205 S0 T0 ; sets the minimum extruding and travel feed rate, mm/sec
M107
G90 ; use absolute coordinates
M83 ; extruder relative mode
M104 S215 ; set extruder temp
M140 S40 ; set bed temp
M190 S40 ; wait for bed temp
M109 S215 ; wait for extruder temp
G28 ; home all
G1 Z2 F240
G1 X2 Y10 F3000
G1 Z0.28 F240
G92 E0.0
G1 Y190 E15.0 F1500.0 ; intro line
G1 X2.3 F5000
G1 Y10 E30 F1200.0 ; intro line
G92 E0.0
G21 ; set units to millimeters
G90 ; use absolute coordinates
M83 ; use relative distances for extrusion
; Filament gcode
;BEFORE_LAYER_CHANGE
;0.2


G1 E-5.00000 F3600.00000
G1 Z0.200 F9000.000
;AFTER_LAYER_CHANGE
;0.2
G1 X31.035 Y80.069
G1 E5.00000 F2400.00000
G1 F1200.000
G1 X31.815 Y79.861 E0.02532
G1 X125.835 Y71.584 E2.95932
G1 X187.956 Y71.581 E1.94777
G1 X188.858 Y71.760 E0.02884
G1 X189.622 Y72.266 E0.02872
G1 X190.139 Y73.026 E0.02884
G1 X190.329 Y73.926 E0.02884
G1 X190.348 Y146.084 E2.26247
G1 X190.243 Y146.740 E0.02083
G1 X189.961 Y147.342 E0.02083
G1 X189.524 Y147.842 E0.02083
G1 X188.965 Y148.202 E0.02083
G1 X188.482 Y148.364 E0.01597
G1 X187.980 Y148.419 E0.01585
G1 X125.896 Y148.419 E1.94659
G1 X31.927 Y145.589 E2.94767
G1 X31.288 Y145.472 E0.02036
G1 X30.705 Y145.188 E0.02036
G1 X30.217 Y144.753 E0.02048
G1 X29.869 Y144.205 E0.02036
G1 X29.708 Y143.726 E0.01585
G1 X29.652 Y143.223 E0.01585
G1 X29.652 Y82.186 E1.91377
G1 X29.757 Y81.530 E0.02083
G1 X30.039 Y80.928 E0.02083
G1 X30.476 Y80.428 E0.02083
G1 X30.984 Y80.101 E0.01895
G1 E-3.50000 F3600.00000
G1 F7200.000
G1 X31.815 Y79.861 E-0.41074
G1 X33.942 Y79.673 E-1.01426
G1 E-0.07500 F3600.00000
G1 X32.993 Y83.192 F9000.000
G1 E5.00000 F2400.00000
G1 F1200.000
G1 X102.972 Y83.192 E2.19414
G1 X102.972 Y142.250 E1.85170
G1 X32.993 Y142.250 E2.19414
G1 X32.993 Y83.252 E1.84982
G1 X32.616 Y82.815 F9000.000
G1 F1200.000
G1 X103.349 Y82.815 E2.21779
G1 X103.349 Y142.627 E1.87535
G1 X32.616 Y142.627 E2.21779
G1 X32.616 Y82.875 E1.87347
G1 X32.239 Y82.438 F9000.000
G1 F1200.000
G1 X103.726 Y82.438 E2.24144
G1 X103.726 Y143.004 E1.89899
G1 X32.239 Y143.004 E2.24144
G1 X32.239 Y82.498 E1.89711
G1 X32.628 Y82.531 F9000.000
G1 E-3.50000 F3600.00000
G1 F7200.000
G1 X35.239 Y82.496 E-1.42500
G1 E-0.07500 F3600.00000
G1 X102.859 Y84.068 F9000.000
G1 E5.00000 F2400.00000
G1 F1200.000
G1 X102.266 Y83.475 E0.02634
G1 X101.732 Y83.475 E0.01676
G1 X102.689 Y84.433 E0.04251
G1 X102.689 Y84.966 E0.01676
G1 X101.198 Y83.475 E0.06621
G1 X100.664 Y83.475 E0.01676
G1 X102.689 Y85.500 E0.08991
G1 X102.689 Y86.034 E0.01676
G1 X100.130 Y83.475 E0.11360
G1 X99.596 Y83.475 E0.01676
G1 X102.689 Y86.568 E0.13730
G1 X102.689 Y87.102 E0.01676
G1 X99.063 Y83.475 E0.16100
G1 X98.529 Y83.475 E0.01676
G1 X102.689 Y87.636 E0.18470
G1 X102.689 Y88.170 E0.01676
G1 X97.995 Y83.475 E0.20840
G1 X97.461 Y83.475 E0.01676
G1 X102.689 Y88.703 E0.23209
G1 X102.689 Y89.237 E0.01676
G1 X96.927 Y83.475 E0.25579
G1 X96.393 Y83.475 E0.01676
G1 X102.689 Y89.771 E0.27949
G1 X102.689 Y90.305 E0.01676
G1 X95.859 Y83.475 E0.30319
G1 X95.326 Y83.475 E0.01676
G1 X102.689 Y90.839 E0.32689
G1 X102.689 Y91.373 E0.01676
G1 X94.792 Y83.475 E0.35058
G1 X94.258 Y83.475 E0.01676
G1 X102.689 Y91.907 E0.37428
G1 X102.689 Y92.440 E0.01676
G1 X93.724 Y83.475 E0.39798
G1 X93.190 Y83.475 E0.01676
G1 X102.689 Y92.974 E0.42168
G1 X102.689 Y93.508 E0.01676
G1 X92.656 Y83.475 E0.44538
G1 X92.122 Y83.475 E0.01676
G1 X102.689 Y94.042 E0.46907
G1 X102.689 Y94.576 E0.01676
G1 X91.589 Y83.475 E0.49277
G1 X91.055 Y83.475 E0.01676
G1 X102.689 Y95.110 E0.51647
G1 X102.689 Y95.644 E0.01676
G1 X90.521 Y83.475 E0.54017
G1 X89.987 Y83.475 E0.01676
G1 X102.689 Y96.177 E0.56387
G1 X102.689 Y96.711 E0.01676
G1 X89.453 Y83.475 E0.58756
G1 X88.919 Y83.475 E0.01676
G1 X102.689 Y97.245 E0.61126
G1 X102.689 Y97.779 E0.01676
G1 X88.385 Y83.475 E0.63496
G1 X87.852 Y83.475 E0.01676
G1 X102.689 Y98.313 E0.65866
G1 X102.689 Y98.847 E0.01676
G1 X87.318 Y83.475 E0.68236
G1 X86.784 Y83.475 E0.01676
G1 X102.689 Y99.381 E0.70605
G1 X102.689 Y99.914 E0.01676
G1 X86.250 Y83.475 E0.72975
G1 X85.716 Y83.475 E0.01676
G1 X102.689 Y100.448 E0.75345
G1 X102.689 Y100.982 E0.01676
G1 X85.182 Y83.475 E0.77715
G1 X84.648 Y83.475 E0.01676
G1 X102.689 Y101.516 E0.80085
G1 X102.689 Y102.050 E0.01676
G1 X84.115 Y83.475 E0.82454
G1 X83.581 Y83.475 E0.01676
G1 X102.689 Y102.584 E0.84824
G1 X102.689 Y103.118 E0.01676
G1 X83.047 Y83.475 E0.87194
G1 X82.513 Y83.475 E0.01676
G1 X102.689 Y103.651 E0.89564
G1 X102.689 Y104.185 E0.01676
G1 X81.979 Y83.475 E0.91934
G1 X81.445 Y83.475 E0.01676
G1 X102.689 Y104.719 E0.94303
G1 X102.689 Y105.253 E0.01676
G1 X80.911 Y83.475 E0.96673
G1 X80.378 Y83.475 E0.01676
G1 X102.689 Y105.787 E0.99043
G1 X102.689 Y106.321 E0.01676
G1 X79.844 Y83.475 E1.01413
G1 X79.310 Y83.475 E0.01676
G1 X102.689 Y106.855 E1.03783
G1 X102.689 Y107.388 E0.01676
G1 X78.776 Y83.475 E1.06152
G1 X78.242 Y83.475 E0.01676
G1 X102.689 Y107.922 E1.08522
G1 X102.689 Y108.456 E0.01676
G1 X77.708 Y83.475 E1.10892
G1 X77.174 Y83.475 E0.01676
G1 X102.689 Y108.990 E1.13262
G1 X102.689 Y109.524 E0.01676
G1 X76.641 Y83.475 E1.15632
G1 X76.107 Y83.475 E0.01676
G1 X102.689 Y110.058 E1.18001
G1 X102.689 Y110.592 E0.01676
G1 X75.573 Y83.475 E1.20371
G1 X75.039 Y83.475 E0.01676
G1 X102.689 Y111.125 E1.22741
G1 X102.689 Y111.659 E0.01676
G1 X74.505 Y83.475 E1.25111
G1 X73.971 Y83.475 E0.01676
G1 X102.689 Y112.193 E1.27481
G1 X102.689 Y112.727 E0.01676
G1 X73.437 Y83.475 E1.29850
G1 X72.904 Y83.475 E0.01676
G1 X102.689 Y113.261 E1.32220
G1 X102.689 Y113.795 E0.01676
G1 X72.370 Y83.475 E1.34590
G1 X71.836 Y83.475 E0.01676
G1 X102.689 Y114.329 E1.36960
G1 X102.689 Y114.862 E0.01676
G1 X71.302 Y83.475 E1.39330
G1 X70.768 Y83.475 E0.01676
G1 X102.689 Y115.396 E1.41699
G1 X102.689 Y115.930 E0.01676
G1 X70.234 Y83.475 E1.44069
G1 X69.700 Y83.475 E0.01676
G1 X102.689 Y116.464 E1.46439
G1 X102.689 Y116.998 E0.01676
G1 X69.167 Y83.475 E1.48809
G1 X68.633 Y83.475 E0.01676
G1 X102.689 Y117.532 E1.51179
G1 X102.689 Y118.066 E0.01676
G1 X68.099 Y83.475 E1.53548
G1 X67.565 Y83.475 E0.01676
G1 X102.689 Y118.599 E1.55918
G1 X102.689 Y119.133 E0.01676
G1 X67.031 Y83.475 E1.58288
G1 X66.497 Y83.475 E0.01676
G1 X102.689 Y119.667 E1.60658
G1 X102.689 Y120.201 E0.01676
G1 X65.963 Y83.475 E1.63028
G1 X65.430 Y83.475 E0.01676
G1 X102.689 Y120.735 E1.65397
G1 X102.689 Y121.269 E0.01676
G1 X64.896 Y83.475 E1.67767
G1 X64.362 Y83.475 E0.01676
G1 X102.689 Y121.803 E1.70137
G1 X102.689 Y122.336 E0.01676
G1 X63.828 Y83.475 E1.72507
G1 X63.294 Y83.475 E0.01676
G1 X102.689 Y122.870 E1.74877
G1 X102.689 Y123.404 E0.01676
G1 X62.760 Y83.475 E1.77246
G1 X62.226 Y83.475 E0.01676
G1 X102.689 Y123.938 E1.79616
G1 X102.689 Y124.472 E0.01676
G1 X61.693 Y83.475 E1.81986
G1 X61.159 Y83.475 E0.01676
G1 X102.689 Y125.006 E1.84356
G1 X102.689 Y125.540 E0.01676
G1 X60.625 Y83.475 E1.86726
G1 X60.091 Y83.475 E0.01676
G1 X102.689 Y126.073 E1.89095
G1 X102.689 Y126.607 E0.01676
G1 X59.557 Y83.475 E1.91465
G1 X59.023 Y83.475 E0.01676
G1 X102.689 Y127.141 E1.93835
G1 X102.689 Y127.675 E0.01676
G1 X58.489 Y83.475 E1.96205
G1 X57.956 Y83.475 E0.01676
G1 X102.689 Y128.209 E1.98575
G1 X102.689 Y128.743 E0.01676
G1 X57.422 Y83.475 E2.00944
G1 X56.888 Y83.475 E0.01676
G1 X102.689 Y129.277 E2.03314
G1 X102.689 Y129.810 E0.01676
G1 X56.354 Y83.475 E2.05684
G1 X55.820 Y83.475 E0.01676
G1 X102.689 Y130.344 E2.08054
G1 X102.689 Y130.878 E0.01676
G1 X55.286 Y83.475 E2.10424
G1 X54.752 Y83.475 E0.01676
G1 X102.689 Y131.412 E2.12793
G1 X102.689 Y131.946 E0.01676
G1 X54.219 Y83.475 E2.15163
G1 X53.685 Y83.475 E0.01676
G1 X102.689 Y132.480 E2.17533
G1 X102.689 Y133.013 E0.01676
G1 X53.151 Y83.475 E2.19903
G1 X52.617 Y83.475 E0.01676
G1 X102.689 Y133.547 E2.22273
G1 X102.689 Y134.081 E0.01676
G1 X52.083 Y83.475 E2.24642
G1 X51.549 Y83.475 E0.01676
G1 X102.689 Y134.615 E2.27012
G1 X102.689 Y135.149 E0.01676
G1 X51.015 Y83.475 E2.29382
G1 X50.482 Y83.475 E0.01676
G1 X102.689 Y135.683 E2.31752
G1 X102.689 Y136.217 E0.01676
G1 X49.948 Y83.475 E2.34122
G1 X49.414 Y83.475 E0.01676
G1 X102.689 Y136.750 E2.36491
G1 X102.689 Y137.284 E0.01676
G1 X48.880 Y83.475 E2.38861
G1 X48.346 Y83.475 E0.01676
G1 X102.689 Y137.818 E2.41231
G1 X102.689 Y138.352 E0.01676
G1 X47.812 Y83.475 E2.43601
G1 X47.279 Y83.475 E0.01676
G1 X102.689 Y138.886 E2.45971
G1 X102.689 Y139.420 E0.01676
G1 X46.745 Y83.475 E2.48340
G1 X46.211 Y83.475 E0.01676
G1 X102.689 Y139.954 E2.50710
G1 X102.689 Y140.487 E0.01676
G1 X45.677 Y83.475 E2.53080
G1 X45.143 Y83.475 E0.01676
G1 X102.689 Y141.021 E2.55450
G1 X102.689 Y141.555 E0.01676
G1 X44.609 Y83.475 E2.57820
G1 X44.075 Y83.475 E0.01676
G1 X102.567 Y141.967 E2.59647
G1 X102.033 Y141.967 E0.01676
G1 X43.542 Y83.475 E2.59647
G1 X43.008 Y83.475 E0.01676
G1 X101.499 Y141.967 E2.59647
G1 X100.966 Y141.967 E0.01676
G1 X42.474 Y83.475 E2.59647
G1 X41.940 Y83.475 E0.01676
G1 X100.432 Y141.967 E2.59647
G1 X99.898 Y141.967 E0.01676
G1 X41.406 Y83.475 E2.59647
G1 X40.872 Y83.475 E0.01676
G1 X99.364 Y141.967 E2.59647
G1 X98.830 Y141.967 E0.01676
G1 X40.338 Y83.475 E2.59647
G1 X39.805 Y83.475 E0.01676
G1 X98.296 Y141.967 E2.59647
G1 X97.762 Y141.967 E0.01676
G1 X39.271 Y83.475 E2.59647
G1 X38.737 Y83.475 E0.01676
G1 X97.229 Y141.967 E2.59647
G1 X96.695 Y141.967 E0.01676
G1 X38.203 Y83.475 E2.59647
G1 X37.669 Y83.475 E0.01676
G1 X96.161 Y141.967 E2.59647
G1 X95.627 Y141.967 E0.01676
G1 X37.135 Y83.475 E2.59647
G1 X36.601 Y83.475 E0.01676
G1 X95.093 Y141.967 E2.59647
G1 X94.559 Y141.967 E0.01676
G1 X36.068 Y83.475 E2.59647
G1 X35.534 Y83.475 E0.01676
G1 X94.025 Y141.967 E2.59647
G1 X93.492 Y141.967 E0.01676
G1 X35.000 Y83.475 E2.59647
G1 X34.466 Y83.475 E0.01676
G1 X92.958 Y141.967 E2.59647
G1 X92.424 Y141.967 E0.01676
G1 X33.932 Y83.475 E2.59647
G1 X33.398 Y83.475 E0.01676
G1 X91.890 Y141.967 E2.59647
G1 X91.356 Y141.967 E0.01676
G1 X33.276 Y83.887 E2.57820
G1 X33.276 Y84.420 E0.01676
G1 X90.822 Y141.967 E2.55450
G1 X90.288 Y141.967 E0.01676
G1 X33.276 Y84.954 E2.53080
G1 X33.276 Y85.488 E0.01676
G1 X89.755 Y141.967 E2.50710
G1 X89.221 Y141.967 E0.01676
G1 X33.276 Y86.022 E2.48341
G1 X33.276 Y86.556 E0.01676
G1 X88.687 Y141.967 E2.45971
G1 X88.153 Y141.967 E0.01676
G1 X33.276 Y87.090 E2.43601
G1 X33.276 Y87.623 E0.01676
G1 X87.619 Y141.967 E2.41231
G1 X87.085 Y141.967 E0.01676
G1 X33.276 Y88.157 E2.38861
G1 X33.276 Y88.691 E0.01676
G1 X86.551 Y141.967 E2.36492
G1 X86.018 Y141.967 E0.01676
G1 X33.276 Y89.225 E2.34122
G1 X33.276 Y89.759 E0.01676
G1 X85.484 Y141.967 E2.31752
G1 X84.950 Y141.967 E0.01676
G1 X33.276 Y90.293 E2.29382
G1 X33.276 Y90.827 E0.01676
G1 X84.416 Y141.967 E2.27012
G1 X83.882 Y141.967 E0.01676
G1 X33.276 Y91.360 E2.24643
G1 X33.276 Y91.894 E0.01676
G1 X83.348 Y141.967 E2.22273
G1 X82.814 Y141.967 E0.01676
G1 X33.276 Y92.428 E2.19903
G1 X33.276 Y92.962 E0.01676
G1 X82.281 Y141.967 E2.17533
G1 X81.747 Y141.967 E0.01676
G1 X33.276 Y93.496 E2.15163
G1 X33.276 Y94.030 E0.01676
G1 X81.213 Y141.967 E2.12794
G1 X80.679 Y141.967 E0.01676
G1 X33.276 Y94.564 E2.10424
G1 X33.276 Y95.097 E0.01676
G1 X80.145 Y141.967 E2.08054
G1 X79.611 Y141.967 E0.01676
G1 X33.276 Y95.631 E2.05684
G1 X33.276 Y96.165 E0.01676
G1 X79.077 Y141.967 E2.03314
G1 X78.544 Y141.967 E0.01676
G1 X33.276 Y96.699 E2.00945
G1 X33.276 Y97.233 E0.01676
G1 X78.010 Y141.967 E1.98575
G1 X77.476 Y141.967 E0.01676
G1 X33.276 Y97.767 E1.96205
G1 X33.276 Y98.301 E0.01676
G1 X76.942 Y141.967 E1.93835
G1 X76.408 Y141.967 E0.01676
G1 X33.276 Y98.834 E1.91465
G1 X33.276 Y99.368 E0.01676
G1 X75.874 Y141.967 E1.89096
G1 X75.340 Y141.967 E0.01676
G1 X33.276 Y99.902 E1.86726
G1 X33.276 Y100.436 E0.01676
G1 X74.807 Y141.967 E1.84356
G1 X74.273 Y141.967 E0.01676
G1 X33.276 Y100.970 E1.81986
G1 X33.276 Y101.504 E0.01676
G1 X73.739 Y141.967 E1.79616
G1 X73.205 Y141.967 E0.01676
G1 X33.276 Y102.038 E1.77247
G1 X33.276 Y102.571 E0.01676
G1 X72.671 Y141.967 E1.74877
G1 X72.137 Y141.967 E0.01676
G1 X33.276 Y103.105 E1.72507
G1 X33.276 Y103.639 E0.01676
G1 X71.603 Y141.967 E1.70137
G1 X71.070 Y141.967 E0.01676
G1 X33.276 Y104.173 E1.67767
G1 X33.276 Y104.707 E0.01676
G1 X70.536 Y141.967 E1.65398
G1 X70.002 Y141.967 E0.01676
G1 X33.276 Y105.241 E1.63028
G1 X33.276 Y105.775 E0.01676
G1 X69.468 Y141.967 E1.60658
G1 X68.934 Y141.967 E0.01676
G1 X33.276 Y106.308 E1.58288
G1 X33.276 Y106.842 E0.01676
G1 X68.400 Y141.967 E1.55918
G1 X67.866 Y141.967 E0.01676
G1 X33.276 Y107.376 E1.53549
G1 X33.276 Y107.910 E0.01676
G1 X67.333 Y141.967 E1.51179
G1 X66.799 Y141.967 E0.01676
G1 X33.276 Y108.444 E1.48809
G1 X33.276 Y108.978 E0.01676
G1 X66.265 Y141.967 E1.46439
G1 X65.731 Y141.967 E0.01676
G1 X33.276 Y109.512 E1.44069
G1 X33.276 Y110.045 E0.01676
G1 X65.197 Y141.967 E1.41700
G1 X64.663 Y141.967 E0.01676
G1 X33.276 Y110.579 E1.39330
G1 X33.276 Y111.113 E0.01676
G1 X64.130 Y141.967 E1.36960
G1 X63.596 Y141.967 E0.01676
G1 X33.276 Y111.647 E1.34590
G1 X33.276 Y112.181 E0.01676
G1 X63.062 Y141.967 E1.32220
G1 X62.528 Y141.967 E0.01676
G1 X33.276 Y112.715 E1.29851
G1 X33.276 Y113.249 E0.01676
G1 X61.994 Y141.967 E1.27481
G1 X61.460 Y141.967 E0.01676
G1 X33.276 Y113.782 E1.25111
G1 X33.276 Y114.316 E0.01676
G1 X60.926 Y141.967 E1.22741
G1 X60.393 Y141.967 E0.01676
G1 X33.276 Y114.850 E1.20371
G1 X33.276 Y115.384 E0.01676
G1 X59.859 Y141.967 E1.18002
G1 X59.325 Y141.967 E0.01676
G1 X33.276 Y115.918 E1.15632
G1 X33.276 Y116.452 E0.01676
G1 X58.791 Y141.967 E1.13262
G1 X58.257 Y141.967 E0.01676
G1 X33.276 Y116.986 E1.10892
G1 X33.276 Y117.519 E0.01676
G1 X57.723 Y141.967 E1.08522
G1 X57.189 Y141.967 E0.01676
G1 X33.276 Y118.053 E1.06153
G1 X33.276 Y118.587 E0.01676
G1 X56.656 Y141.967 E1.03783
G1 X56.122 Y141.967 E0.01676
G1 X33.276 Y119.121 E1.01413
G1 X33.276 Y119.655 E0.01676
G1 X55.588 Y141.967 E0.99043
G1 X55.054 Y141.967 E0.01676
G1 X33.276 Y120.189 E0.96673
G1 X33.276 Y120.723 E0.01676
G1 X54.520 Y141.967 E0.94304
G1 X53.986 Y141.967 E0.01676
G1 X33.276 Y121.256 E0.91934
G1 X33.276 Y121.790 E0.01676
G1 X53.452 Y141.967 E0.89564
G1 X52.919 Y141.967 E0.01676
G1 X33.276 Y122.324 E0.87194
G1 X33.276 Y122.858 E0.01676
G1 X52.385 Y141.967 E0.84824
G1 X51.851 Y141.967 E0.01676
G1 X33.276 Y123.392 E0.82455
G1 X33.276 Y123.926 E0.01676
G1 X51.317 Y141.967 E0.80085
G1 X50.783 Y141.967 E0.01676
G1 X33.276 Y124.460 E0.77715
G1 X33.276 Y124.993 E0.01676
G1 X50.249 Y141.967 E0.75345
G1 X49.715 Y141.967 E0.01676
G1 X33.276 Y125.527 E0.72975
G1 X33.276 Y126.061 E0.01676
G1 X49.182 Y141.967 E0.70606
G1 X48.648 Y141.967 E0.01676
G1 X33.276 Y126.595 E0.68236
G1 X33.276 Y127.129 E0.01676
G1 X48.114 Y141.967 E0.65866
G1 X47.580 Y141.967 E0.01676
G1 X33.276 Y127.663 E0.63496
G1 X33.276 Y128.197 E0.01676
G1 X47.046 Y141.967 E0.61126
G1 X46.512 Y141.967 E0.01676
G1 X33.276 Y128.730 E0.58757
G1 X33.276 Y129.264 E0.01676
G1 X45.978 Y141.967 E0.56387
G1 X45.445 Y141.967 E0.01676
G1 X33.276 Y129.798 E0.54017
G1 X33.276 Y130.332 E0.01676
G1 X44.911 Y141.967 E0.51647
G1 X44.377 Y141.967 E0.01676
G1 X33.276 Y130.866 E0.49277
G1 X33.276 Y131.400 E0.01676
G1 X43.843 Y141.967 E0.46908
G1 X43.309 Y141.967 E0.01676
G1 X33.276 Y131.934 E0.44538
G1 X33.276 Y132.467 E0.01676
G1 X42.775 Y141.967 E0.42168
G1 X42.241 Y141.967 E0.01676
G1 X33.276 Y133.001 E0.39798
G1 X33.276 Y133.535 E0.01676
G1 X41.708 Y141.967 E0.37428
G1 X41.174 Y141.967 E0.01676
G1 X33.276 Y134.069 E0.35059
G1 X33.276 Y134.603 E0.01676
G1 X40.640 Y141.967 E0.32689
G1 X40.106 Y141.967 E0.01676
G1 X33.276 Y135.137 E0.30319
G1 X33.276 Y135.671 E0.01676
G1 X39.572 Y141.967 E0.27949
